!!!SOCIAL_FUNCTION:	songs concerning the sacred stones
!!!PDT:	1918

Specific Region: Dakotas, Minnesota, Montana, Nebraska
!!!REG: Dakotas and Montana
!!!LING_GROUP: Siouan
!!!LANG: Tone
!!!OTL@ENG: Something I Foretold
!!!ONM: No. 76
**kern
*Imale
*clefF4
*k[f#c#g#]
*M2/4
*MM100
16c#
16c#
8c#
16c#
8.B
=2
4A
8B
8B
=3||
*M3/4
2.A
=4||
*M2/4
8F#
8F#
8F#
8F#
=5
2F#
=6
16B
16B
8B
16B
8.A
=7
4F#
8F#
8F#
=8||
*M3/4
2.F#
=9||
*M2/4
8F#
8F#
8F#
8F#
=10
2F#
=11
16B
16B
8B
16B
8.A
=12
4F#
8A
8F#
=13||
*M3/4
2.F#
=14||
*M2/4
8F#
8F#
8F#
8F#
=15
2F#
=16
16F#
16C#
8C#
8C#
8BB
=17
4AA
8BB
8BB
=18||
*M3/4
2.AA
=19
8FF#
8FF#
8FF#
8FF#
4FF#
==
*-
!!!CNT: Native American -- Sioux
!!!MRD: 1911/07//-1914///
!!!OCL: Frances Densmore
!!!YOR1: Teton Sioux Music, Bulletin 61,
!!!YOR2: Bureau of American Ethnology, Smithsonian Institution
!!!PPR: Government Printing Office
!!!PPP: Washington, D.C.
!!!PDT: 1918///
!!!ENC: Craig Stuart Sapp
!!!END: 2002/03/25/
!!!EEV: 2002/03/31/
!!!AGN: Song of Personal Dreams/Song Concerning the Sacred Stones
!!!MPN@@SIO: Shiya'ka
!!!MPN@ENG: Teal Duck
!!!TXO: Teton Sioux
!!!MLC: Standing Rock Reservation, South Dakota, United States of America
!!!ARL: 45.9/-100.7#
!!!catalog: Catalogue No. 464
!!!PPG: 234
!!!EFL: 76/245
!!!VTS: 389925874
